img/twitch.svg

<svg width="34" height="39" viewBox="0 0 34 39" fill="none" xmlns="http://www.w3.org/2000/svg">
<path d="M7.375 0.444336L0.5 7.31934V32.0693H8.75V38.9443L15.625 32.0693H21.125L33.5 19.6943V0.444336H7.375ZM30.75 18.3193L25.25 23.8193H19.75L14.9375 28.6318V23.8193H8.75V3.19434H30.75V18.3193Z" fill="black"/>
<path d="M26.625 8.00684H23.875V16.2568H26.625V8.00684Z" fill="black"/>
<path d="M19.0625 8.00684H16.3125V16.2568H19.0625V8.00684Z" fill="black"/>
</svg>

<svg width="34" height="39" fill="none" xmlns="http://www.w3.org/2000/svg">
  <path d="M7.375.444L.5 7.32v24.75h8.25v6.875l6.875-6.875h5.5L33.5 19.694V.444H7.375zM30.75 18.32l-5.5 5.5h-5.5l-4.813 4.813v-4.813H8.75V3.194h22V18.32z" fill="#000"/>
  <path d="M26.625 8.007h-2.75v8.25h2.75v-8.25zM19.063 8.007h-2.75v8.25h2.75v-8.25z" fill="#000"/>
</svg>
